ligands/haptic/eta3-cyclopropyl.svg

<svg height="42" viewBox="0 0 62 42" width="62" xmlns="http://www.w3.org/2000/svg"><g transform="matrix(.05 0 0 .05 -238 -298)"><path d="m5410 6760h-20v-54.55h20z"/><path d="m5410 6650.91h-20v-54.55h20z"/><path d="m5410 6541.82h-20v-54.55h20z"/><path d="m5410 6214.55h-20v-54.55h20z"/><path d="m4877.87 6036.91-76.5-20h1158.48l-64.84 20z"/><path d="m5433.79 6304.45 6.18 142.23-638.6-429.77 76.5 20z"/><path d="m5895.01 6036.91 64.84-20-519.88 429.77-6.18-142.23z"/><path d="m5259.56 6141.97c4.37 28.31 71.21 51.29 149.2 51.29 77.98 0 137.74-22.98 133.37-51.29-4.36-28.31-71.21-51.29-149.19-51.29-77.99 0-137.75 22.98-133.38 51.29" fill="none" stroke="#000" stroke-width="20"/></g></svg>

<svg xmlns="http://www.w3.org/2000/svg" xmlns:xlink="http://www.w3.org/1999/xlink" width="62" height="42" version="1.1" viewBox="0 0 62 42" style="background-color:#ffffff00"><path fill="#000" stroke="none" d="M 5410,6760 L 5390,6760 L 5390,6705.45 L 5410,6705.45 L 5410,6760 L 5410,6760 Z" transform="matrix(0.05 0 0 0.05 -238 -298)"/><path fill="#000" stroke="none" d="M 5410,6650.91 L 5390,6650.91 L 5390,6596.36 L 5410,6596.36 L 5410,6650.91 L 5410,6650.91 Z" transform="matrix(0.05 0 0 0.05 -238 -298)"/><path fill="#000" stroke="none" d="M 5410,6541.82 L 5390,6541.82 L 5390,6487.27 L 5410,6487.27 L 5410,6541.82 L 5410,6541.82 Z" transform="matrix(0.05 0 0 0.05 -238 -298)"/><path fill="#000" stroke="none" d="M 5410,6214.55 L 5390,6214.55 L 5390,6160 L 5410,6160 L 5410,6214.55 L 5410,6214.55 Z" transform="matrix(0.05 0 0 0.05 -238 -298)"/><path fill="#000" stroke="none" d="M 4877.87,6036.91 L 4801.37,6016.91 L 5959.85,6016.91 L 5895.01,6036.91 L 4877.87,6036.91 Z" transform="matrix(0.05 0 0 0.05 -238 -298)"/><path fill="#000" stroke="none" d="M 5433.79,6304.45 L 5439.97,6446.68 L 4801.37,6016.91 L 4877.87,6036.91 L 5433.79,6304.45 Z" transform="matrix(0.05 0 0 0.05 -238 -298)"/><path fill="#000" stroke="none" d="M 5895.01,6036.91 L 5959.85,6016.91 L 5439.97,6446.68 L 5433.79,6304.45 L 5895.01,6036.91 Z" transform="matrix(0.05 0 0 0.05 -238 -298)"/><path fill="none" stroke="#000" stroke-width="20" d="M 5259.56,6141.97 C 5263.93,6170.28 5330.77,6193.26 5408.76,6193.26 C 5486.74,6193.26 5546.5,6170.28 5542.13,6141.97 C 5537.77,6113.66 5470.92,6090.68 5392.94,6090.68 C 5314.95,6090.68 5255.19,6113.66 5259.56,6141.97" transform="matrix(0.05 0 0 0.05 -238 -298)"/></svg>
